blockchains/ethereum/assets/0x6f259637dcD74C767781E37Bc6133cd6A68aa161/logo.svg

<svg fill="none" height="250" viewBox="0 0 250 250" width="250" xmlns="http://www.w3.org/2000/svg" xmlns:xlink="http://www.w3.org/1999/xlink"><clipPath id="a"><path d="m0 0h250v250h-250z"/></clipPath><g clip-path="url(#a)"><path d="m147.995 76.8946c0-35.872-17.293-66.7771-30.538-76.89479744 0 0-.919-.55187656-.919.91979444-1.104 69.352503-36.2403 88.300203-55.7399 113.502403-44.702 58.499-3.1273 122.517 39.1832 134.29 23.7307 6.623-5.5188-11.773-9.1979-50.405-4.4151-46.909 57.2116-82.597 57.2116-121.4124z" fill="#282e5b"/><path d="m171.174 100.622c-.184-.184-.552-.184-.92 0 0 0 0 0-.184.184-.736 8.646-10.302 27.41-22.259 44.518-40.655 58.131-17.476 86.093-4.415 101.178 7.542 8.83 0 0 18.948-9.014 1.471-.736 36.791-19.5 40.655-61.994 3.863-41.391-22.443-67.329-31.825-74.872z" fill="#059bdc"/></g></svg>

<svg width="250" height="250" viewBox="0 0 250 250" fill="none" xmlns="http://www.w3.org/2000/svg">
<g clip-path="url(#clip0_48_13076)">
<path d="M147.995 76.8946C147.995 41.0226 130.702 10.1175 117.457 -0.00019744C117.457 -0.00019744 116.538 -0.552074 116.538 0.919597C115.434 70.2721 80.2977 89.2198 60.7981 114.422C16.0961 172.921 57.6708 236.939 99.9813 248.712C123.712 255.335 94.4625 236.939 90.7834 198.307C86.3683 151.398 147.995 115.71 147.995 76.8946Z" fill="#282E5B"/>
<path d="M171.174 100.622C170.99 100.438 170.622 100.438 170.254 100.622C170.254 100.622 170.254 100.622 170.07 100.806C169.334 109.452 159.768 128.216 147.811 145.324C107.156 203.455 130.335 231.417 143.396 246.502C150.938 255.332 143.396 246.502 162.344 237.488C163.815 236.752 199.135 217.988 202.999 175.494C206.862 134.103 180.556 108.165 171.174 100.622Z" fill="#059BDC"/>
</g>
<defs>
<clipPath id="clip0_48_13076">
<rect width="250" height="250" fill="white"/>
</clipPath>
</defs>
</svg>
